packages/create-sumup-react-app/template/src/assets/logo.svg

<svg xmlns="http://www.w3.org/2000/svg" width="125" height="37" viewBox="0 0 125 37">
    <path fill="#000" d="M2.84 0h30.757a2.84 2.84 0 0 1 2.84 2.84v30.815a2.84 2.84 0 0 1-2.84 2.841H2.84A2.84 2.84 0 0 1 0 33.656V2.84A2.84 2.84 0 0 1 2.84 0zm19.664 15.786-11.3 11.318a.533.533 0 0 0 .067.788 8.513 8.513 0 0 0 11.61-.413c3.2-3.206 3.322-8.33.364-11.681a.533.533 0 0 0-.741-.012zm-8.57 4.924 11.3-11.317a.536.536 0 0 0-.067-.788 8.513 8.513 0 0 0-11.61.412 8.546 8.546 0 0 0-.365 11.682l.001-.001a.531.531 0 0 0 .74.012h.001zm34.388 1.139c.39 0 .792.22 1.128.61.632.777 1.59.895 2.1.895 1.673 0 2.548-.952 2.548-1.89 0-1.283-1.322-1.801-2.854-2.398-1.911-.751-4.294-1.681-4.294-4.591 0-2.827 2.404-4.308 4.781-4.308 1.725 0 3.544.95 4.425 2.315.149.222.227.496.227.792 0 .775-.675 1.429-1.473 1.429-.42 0-.803-.228-1.134-.672-.499-.698-1.206-1.066-2.045-1.066-1.338 0-1.937.759-1.937 1.51 0 .939.976 1.37 2.568 1.999 2.04.807 4.58 1.808 4.58 4.99 0 3.047-2.776 4.692-5.391 4.692-1.527 0-3.537-.697-4.424-2.035a1.472 1.472 0 0 1-.279-.848c0-.744.703-1.424 1.474-1.424zm62.344-11.682c2.805 0 4.944 2.126 4.944 4.92v5.86c0 2.79-2.14 5.204-4.944 5.204h-.081c-.804 0-1.7-.225-2.237-.701v7.295a1.41 1.41 0 0 1-1.412 1.405 1.41 1.41 0 0 1-1.413-1.405V21.596c-.017-.166 0-.336 0-.505v-5.864a5.056 5.056 0 0 1 5.062-5.06h.081zm2.194 10.924v-5.864c0-1.205-.983-2.18-2.194-2.18h-.081a2.188 2.188 0 0 0-2.196 2.18v5.864c0 1.53.984 2.181 2.196 2.181h.08c1.212 0 2.195-.652 2.195-2.181zm-10.169-9.581h.008v9.686c0 2.733-2.248 4.96-5.007 4.96h-.08c-2.762 0-5.008-2.227-5.008-4.96V11.51h.011a1.412 1.412 0 0 1 1.416-1.343c.763 0 1.382.594 1.417 1.343h.002v.035c0 .008.004.02.004.03 0 .01-.004.02-.004.03v9.591c0 1.181.966 2.138 2.161 2.138h.081a2.15 2.15 0 0 0 2.159-2.138V11.51h.008a1.41 1.41 0 0 1 1.416-1.343c.764 0 1.38.594 1.416 1.343zm-33.313 0h.006v9.686c0 2.733-2.245 4.96-5.008 4.96h-.078c-2.76 0-5.008-2.227-5.008-4.96V11.51h.011a1.412 1.412 0 0 1 1.418-1.343c.76 0 1.38.594 1.416 1.343h.004v9.686c0 1.181.967 2.138 2.159 2.138h.078c1.194 0 2.162-.957 2.162-2.138V11.51h.007a1.413 1.413 0 0 1 1.416-1.343c.764 0 1.382.594 1.417 1.343zm15.243-1.343a4.959 4.959 0 0 1 4.952 4.955v9.682h-.012a1.404 1.404 0 0 1-1.4 1.343 1.402 1.402 0 0 1-1.4-1.343h-.004v-.035l-.003-.03c0-.012.003-.02.003-.03v-9.587c0-1.181-.955-2.14-2.136-2.14h-.078c-1.15 0-2.086.913-2.13 2.054 0 .03.003.061.003.094v9.68h-.01a1.4 1.4 0 0 1-2.546.749 1.397 1.397 0 0 1-.261-.755h-.007v-9.682c0-.029.004-.055.004-.084a2.136 2.136 0 0 0-2.132-2.047h-.078c-1.18 0-2.135.957-2.135 2.14v9.68h-.008a1.404 1.404 0 0 1-1.4 1.345 1.404 1.404 0 0 1-1.4-1.345h-.007v-9.68a4.957 4.957 0 0 1 4.95-4.955h.078c1.386 0 2.637.572 3.536 1.492a4.932 4.932 0 0 1 3.543-1.501h.078zm37.562 0a2.821 2.821 0 0 1 0 5.643 2.821 2.821 0 0 1 0-5.643zm0 4.96a2.14 2.14 0 0 0 2.134-2.139 2.133 2.133 0 1 0-2.134 2.138v.001zm-.939-3.257c0-.187.141-.292.29-.292h.701c.517 0 .855.317.855.797a.7.7 0 0 1-.596.72l.507.547c.078.086.121.155.121.252 0 .084-.074.27-.298.27-.15 0-.202-.054-.275-.143l-.714-.905h-.008v.737c0 .206-.123.311-.292.311-.167 0-.291-.105-.291-.311V11.87zm.583.814h.382c.191 0 .3-.127.3-.287 0-.176-.135-.279-.3-.279h-.382v.566z"/>
</svg>

<svg xmlns="http://www.w3.org/2000/svg" width="125" height="37" viewBox="0 0 125 37">
  <path fill="#212933" d="M2.84,0 L33.597,0 C35.166,0 36.437,1.272 36.437,2.84 L36.437,33.655 C36.437,35.225 35.166,36.496 33.597,36.496 L2.84,36.496 C1.27,36.496 0,35.224 0,33.656 L0,2.84 C0,1.27 1.272,0 2.84,0 Z M22.504,15.786 L11.204,27.104 C11.009,27.314 11.014,27.641 11.217,27.844 C11.234,27.862 11.252,27.877 11.271,27.892 C14.618,30.806 19.696,30.669 22.881,27.479 C26.081,24.273 26.203,19.149 23.245,15.798 C23.04,15.594 22.713,15.59 22.504,15.786 Z M13.934,20.71 L25.234,9.393 C25.428,9.183 25.424,8.855 25.22,8.651 C25.203,8.635 25.185,8.619 25.167,8.605 C21.819,5.69 16.742,5.828 13.557,9.017 C10.356,12.224 10.234,17.347 13.192,20.699 L13.193,20.698 C13.397,20.902 13.725,20.906 13.933,20.71 L13.934,20.71 Z M48.322,21.849 C48.712,21.849 49.114,22.069 49.45,22.459 C50.082,23.236 51.04,23.354 51.55,23.354 C53.223,23.354 54.098,22.402 54.098,21.464 C54.098,20.181 52.776,19.663 51.244,19.066 C49.333,18.315 46.95,17.385 46.95,14.475 C46.95,11.648 49.354,10.167 51.731,10.167 C53.456,10.167 55.275,11.117 56.156,12.482 C56.305,12.704 56.383,12.978 56.383,13.274 C56.383,14.049 55.708,14.703 54.91,14.703 C54.49,14.703 54.107,14.475 53.776,14.031 C53.277,13.333 52.57,12.965 51.731,12.965 C50.393,12.965 49.794,13.724 49.794,14.475 C49.794,15.414 50.77,15.845 52.362,16.474 C54.402,17.281 56.942,18.282 56.942,21.464 C56.942,24.511 54.166,26.156 51.551,26.156 C50.024,26.156 48.014,25.459 47.127,24.121 C46.943,23.855 46.848,23.571 46.848,23.273 C46.848,22.529 47.551,21.849 48.322,21.849 Z M110.666,10.167 C113.471,10.167 115.61,12.293 115.61,15.087 L115.61,20.947 C115.61,23.737 113.47,26.151 110.666,26.151 L110.585,26.151 C109.781,26.151 108.885,25.926 108.348,25.45 L108.348,32.745 C108.348,33.52 107.715,34.15 106.936,34.15 C106.156,34.15 105.523,33.52 105.523,32.745 L105.523,21.596 C105.506,21.43 105.523,21.26 105.523,21.091 L105.523,15.227 C105.523,12.435 107.779,10.167 110.585,10.167 L110.665,10.167 L110.666,10.167 Z M112.86,21.091 L112.86,15.227 C112.86,14.022 111.877,13.047 110.666,13.047 L110.585,13.047 C109.373,13.047 108.389,14.022 108.389,15.227 L108.389,21.091 C108.389,22.621 109.373,23.272 110.585,23.272 L110.665,23.272 C111.877,23.272 112.86,22.62 112.86,21.091 Z M102.691,11.51 L102.699,11.51 L102.699,21.196 C102.699,23.929 100.451,26.156 97.692,26.156 L97.612,26.156 C94.85,26.156 92.604,23.929 92.604,21.196 L92.604,11.51 L92.615,11.51 C92.651,10.761 93.268,10.167 94.031,10.167 C94.794,10.167 95.413,10.761 95.448,11.51 L95.45,11.51 L95.45,11.545 C95.45,11.553 95.454,11.565 95.454,11.575 C95.454,11.585 95.45,11.595 95.45,11.605 L95.45,21.196 C95.45,22.377 96.416,23.334 97.611,23.334 L97.692,23.334 C98.882,23.334 99.851,22.377 99.851,21.196 L99.851,11.51 L99.859,11.51 C99.895,10.761 100.509,10.167 101.275,10.167 C102.039,10.167 102.655,10.761 102.691,11.51 Z M69.378,11.51 L69.384,11.51 L69.384,21.196 C69.384,23.929 67.139,26.156 64.376,26.156 L64.298,26.156 C61.538,26.156 59.29,23.929 59.29,21.196 L59.29,11.51 L59.301,11.51 C59.336,10.761 59.954,10.167 60.719,10.167 C61.479,10.167 62.099,10.761 62.135,11.51 L62.139,11.51 L62.139,21.196 C62.139,22.377 63.106,23.334 64.298,23.334 L64.376,23.334 C65.57,23.334 66.538,22.377 66.538,21.196 L66.538,11.51 L66.545,11.51 C66.581,10.761 67.199,10.167 67.961,10.167 C68.725,10.167 69.343,10.761 69.378,11.51 Z M84.621,10.167 C87.351,10.167 89.573,12.389 89.573,15.122 L89.573,24.804 L89.561,24.804 C89.526,25.551 88.916,26.147 88.161,26.147 C87.405,26.147 86.795,25.551 86.761,24.804 L86.757,24.804 L86.757,24.769 L86.754,24.739 C86.754,24.727 86.757,24.719 86.757,24.709 L86.757,15.122 C86.757,13.941 85.802,12.982 84.621,12.982 L84.543,12.982 C83.393,12.982 82.457,13.895 82.413,15.036 C82.413,15.066 82.416,15.097 82.416,15.13 L82.416,24.81 L82.406,24.81 C82.371,25.56 81.761,26.156 81.006,26.156 C80.531,26.156 80.114,25.919 79.86,25.559 C79.707,25.346 79.611,25.085 79.599,24.804 L79.592,24.804 L79.592,15.122 C79.592,15.093 79.596,15.067 79.596,15.038 C79.547,13.899 78.613,12.991 77.464,12.991 L77.386,12.991 C76.206,12.991 75.251,13.948 75.251,15.131 L75.251,24.811 L75.243,24.811 C75.209,25.559 74.598,26.156 73.843,26.156 C73.088,26.156 72.477,25.559 72.443,24.811 L72.436,24.811 L72.436,15.131 C72.436,12.397 74.657,10.176 77.386,10.176 L77.464,10.176 C78.85,10.176 80.101,10.748 81,11.668 C81.9,10.744 83.154,10.167 84.543,10.167 L84.621,10.167 Z M122.183,10.167 C123.737,10.167 125,11.435 125,12.988 C125,14.546 123.737,15.81 122.183,15.81 C120.629,15.81 119.366,14.546 119.366,12.988 C119.366,11.435 120.629,10.167 122.183,10.167 Z M122.183,15.127 C123.36,15.127 124.317,14.166 124.317,12.988 C124.317,11.812 123.36,10.858 122.183,10.858 C121.008,10.858 120.049,11.812 120.049,12.988 C120.049,14.166 121.009,15.126 122.183,15.126 L122.183,15.127 Z M121.244,11.87 C121.244,11.683 121.385,11.578 121.534,11.578 L122.235,11.578 C122.752,11.578 123.09,11.895 123.09,12.375 C123.09,12.753 122.858,13.026 122.494,13.095 L123.001,13.642 C123.079,13.728 123.122,13.797 123.122,13.894 C123.122,13.978 123.048,14.164 122.824,14.164 C122.674,14.164 122.622,14.11 122.549,14.021 L121.835,13.116 L121.827,13.116 L121.827,13.853 C121.827,14.059 121.704,14.164 121.535,14.164 C121.368,14.164 121.244,14.059 121.244,13.853 L121.244,11.87 Z M121.827,12.684 L122.209,12.684 C122.4,12.684 122.509,12.557 122.509,12.397 C122.509,12.221 122.374,12.118 122.209,12.118 L121.827,12.118 L121.827,12.684 Z"/>
</svg>
